src/assets/icon.svg

<svg xmlns="http://www.w3.org/2000/svg" style="isolation:isolate" viewBox="0 0 100 100"><defs><clipPath id="a"><path d="M0 0h100v100H0z"/></clipPath></defs><g clip-path="url(#a)"><path d="M49.862 98.943c7.854.057 15.367-1.612 22.733-3.938 14.016-4.427 22.13-13.755 22.993-28.702.431-7.536-1.668-14.221-8.705-18.068-7.07-3.859-10.067-9.726-10.441-17.512-.284-5.958-1.884-11.644-4.755-16.944-3.292-6.072-8.036-10.317-14.97-11.61C47.501.443 38.343.512 29.434 3.894c-7.411 2.814-14.266 6.48-18.386 13.653-3.938 6.855-6.197 14.334-6.605 22.21-.693 13.347 2.36 25.955 9.476 37.202 8.285 13.109 19.702 21.677 35.943 21.984z" fill="#52926c"/><path d="M49.862 98.943c-16.241-.307-27.658-8.887-35.931-21.961C6.826 65.735 3.762 53.115 4.454 39.78c.409-7.888 2.656-15.356 6.605-22.211 4.12-7.172 10.975-10.838 18.386-13.653C38.354.534 47.501.466 56.728 2.191c6.923 1.294 11.667 5.55 14.97 11.61 2.871 5.289 4.471 10.986 4.755 16.945.375 7.785 3.371 13.641 10.441 17.511 7.037 3.848 9.136 10.532 8.705 18.068-.862 14.947-8.977 24.265-22.993 28.702-7.377 2.304-14.89 3.973-22.744 3.916zm7.774-50.81H35.959V37.521c1.657-.113 3.144-.227 4.688-.329V32.72h-14.55c-.068-.658-.011-.976-.148-1.18-.749-1.214-1.339-2.656-2.406-3.461-.476-.352-2.599.386-2.826 1.032-.442 1.272-.522 3.019.023 4.222 1.305 2.94 4.086 3.791 7.093 4.029 3.053.239 3.757.942 3.78 3.961.045 5.289.011 10.589.011 15.878v6.934c-1.543.102-2.69.17-3.893.25v4.176h12.95v-4.142c-1.623-.102-3.099-.193-4.71-.295v-11.02h21.552v11.065c-1.646.079-3.042.148-4.551.216v4.153h13.04V64.43c-1.373-.125-2.576-.238-3.847-.352V37.521c1.316-.136 2.519-.249 3.824-.374v-4.165H52.983v4.221c1.612.103 3.087.205 4.653.307v10.623z" fill="#52926c"/><path d="M57.636 48.133V37.521c-1.566-.102-3.041-.204-4.653-.306v-4.222h13.006v4.165c-1.305.125-2.508.25-3.824.375V64.09c1.259.113 2.474.227 3.847.351v4.109h-13.04v-4.154c1.498-.068 2.905-.136 4.551-.216V53.115H35.971v11.02c1.611.102 3.087.193 4.71.295v4.142h-12.95v-4.176c1.203-.079 2.35-.148 3.893-.25v-6.934c0-5.289.034-10.589-.011-15.878-.023-3.018-.727-3.722-3.78-3.96-3.007-.239-5.788-1.101-7.093-4.029-.533-1.215-.465-2.951-.023-4.222.227-.647 2.35-1.385 2.826-1.033 1.067.794 1.657 2.247 2.406 3.462.125.204.069.522.148 1.18h14.55v4.471c-1.555.114-3.031.216-4.688.33v10.611c7.196-.011 14.312-.011 21.677-.011z" fill="#f2cdde"/></g></svg>

<svg xmlns="http://www.w3.org/2000/svg" xmlns:xlink="http://www.w3.org/1999/xlink" style="isolation:isolate" viewBox="0 0 100 100"><defs><clipPath id="_clipPath_JqLkm1ZiZlj3ghE4jkJIHC6iTEab57Xx"><rect width="100" height="100"/></clipPath></defs><g clip-path="url(#_clipPath_JqLkm1ZiZlj3ghE4jkJIHC6iTEab57Xx)"><g><path d=" M 49.862 98.943 C 57.716 99 65.229 97.331 72.595 95.005 C 86.611 90.578 94.725 81.25 95.588 66.303 C 96.019 58.767 93.92 52.082 86.883 48.235 C 79.813 44.376 76.816 38.509 76.442 30.723 C 76.158 24.765 74.558 19.079 71.687 13.779 C 68.395 7.707 63.651 3.462 56.717 2.169 C 47.501 0.443 38.343 0.512 29.434 3.894 C 22.023 6.708 15.168 10.374 11.048 17.547 C 7.11 24.402 4.851 31.881 4.443 39.757 C 3.75 53.104 6.803 65.712 13.919 76.959 C 22.204 90.068 33.621 98.636 49.862 98.943 Z " fill="#52926c"/><path d=" M 49.862 98.943 C 33.621 98.636 22.204 90.056 13.931 76.982 C 6.826 65.735 3.762 53.115 4.454 39.78 C 4.863 31.892 7.11 24.424 11.059 17.569 C 15.179 10.397 22.034 6.731 29.445 3.916 C 38.354 0.534 47.501 0.466 56.728 2.191 C 63.651 3.485 68.395 7.741 71.698 13.801 C 74.569 19.09 76.169 24.787 76.453 30.746 C 76.828 38.531 79.824 44.387 86.894 48.257 C 93.931 52.105 96.03 58.789 95.599 66.325 C 94.737 81.272 86.622 90.59 72.606 95.027 C 65.229 97.331 57.716 99 49.862 98.943 Z  M 57.636 48.133 C 50.271 48.133 43.155 48.133 35.959 48.133 C 35.959 44.478 35.959 41.028 35.959 37.521 C 37.616 37.408 39.103 37.294 40.647 37.192 C 40.647 35.683 40.647 34.4 40.647 32.72 C 35.653 32.72 30.852 32.72 26.097 32.72 C 26.029 32.062 26.086 31.744 25.949 31.54 C 25.2 30.326 24.61 28.884 23.543 28.079 C 23.067 27.727 20.944 28.465 20.717 29.111 C 20.275 30.383 20.195 32.13 20.74 33.333 C 22.045 36.273 24.826 37.124 27.833 37.362 C 30.886 37.601 31.59 38.304 31.613 41.323 C 31.658 46.612 31.624 51.912 31.624 57.201 C 31.624 59.504 31.624 61.808 31.624 64.135 C 30.081 64.237 28.934 64.305 27.731 64.385 C 27.731 65.86 27.731 67.211 27.731 68.561 C 32.135 68.561 36.323 68.561 40.681 68.561 C 40.681 67.142 40.681 65.849 40.681 64.419 C 39.058 64.317 37.582 64.226 35.971 64.124 C 35.971 60.378 35.971 56.758 35.971 53.104 C 43.291 53.104 50.407 53.104 57.523 53.104 C 57.523 56.928 57.523 60.537 57.523 64.169 C 55.877 64.248 54.481 64.317 52.972 64.385 C 52.972 65.849 52.972 67.142 52.972 68.538 C 57.364 68.538 61.62 68.538 66.012 68.538 C 66.012 67.097 66.012 65.803 66.012 64.43 C 64.639 64.305 63.436 64.192 62.165 64.078 C 62.165 55.146 62.165 46.385 62.165 37.521 C 63.481 37.385 64.684 37.272 65.989 37.147 C 65.989 35.694 65.989 34.412 65.989 32.982 C 61.54 32.982 57.285 32.982 52.983 32.982 C 52.983 34.457 52.983 35.762 52.983 37.203 C 54.595 37.306 56.07 37.408 57.636 37.51 C 57.636 41.108 57.636 44.49 57.636 48.133 Z " fill="#52926c"/><path d=" M 57.636 48.133 C 57.636 44.49 57.636 41.119 57.636 37.521 C 56.07 37.419 54.595 37.317 52.983 37.215 C 52.983 35.773 52.983 34.468 52.983 32.993 C 57.285 32.993 61.54 32.993 65.989 32.993 C 65.989 34.412 65.989 35.705 65.989 37.158 C 64.684 37.283 63.481 37.408 62.165 37.533 C 62.165 46.396 62.165 55.158 62.165 64.09 C 63.424 64.203 64.639 64.317 66.012 64.441 C 66.012 65.815 66.012 67.097 66.012 68.55 C 61.62 68.55 57.375 68.55 52.972 68.55 C 52.972 67.154 52.972 65.86 52.972 64.396 C 54.47 64.328 55.877 64.26 57.523 64.18 C 57.523 60.549 57.523 56.94 57.523 53.115 C 50.418 53.115 43.291 53.115 35.971 53.115 C 35.971 56.769 35.971 60.39 35.971 64.135 C 37.582 64.237 39.058 64.328 40.681 64.43 C 40.681 65.86 40.681 67.154 40.681 68.572 C 36.323 68.572 32.135 68.572 27.731 68.572 C 27.731 67.222 27.731 65.871 27.731 64.396 C 28.934 64.317 30.081 64.248 31.624 64.146 C 31.624 61.808 31.624 59.504 31.624 57.212 C 31.624 51.923 31.658 46.623 31.613 41.334 C 31.59 38.316 30.886 37.612 27.833 37.374 C 24.826 37.135 22.045 36.273 20.74 33.345 C 20.207 32.13 20.275 30.394 20.717 29.123 C 20.944 28.476 23.067 27.738 23.543 28.09 C 24.61 28.884 25.2 30.337 25.949 31.552 C 26.074 31.756 26.018 32.074 26.097 32.732 C 30.852 32.732 35.653 32.732 40.647 32.732 C 40.647 34.4 40.647 35.683 40.647 37.203 C 39.092 37.317 37.616 37.419 35.959 37.533 C 35.959 41.039 35.959 44.49 35.959 48.144 C 43.155 48.133 50.271 48.133 57.636 48.133 Z " fill="#f2cdde"/></g></g></svg>
